X: 166
T: Aşkı Fısıldar Sesin
C: Nev´eser Kökdeş
O: Turkey
F: http://compmusic.upf.edu/node/140
N: nisaburek--sarki--semai--aski_fisildar--neveser_kokdes
N: makam= nisaburek
N: form= sarki
N: usul= semai = 3/4
M: 3/4
L: 1/16
K: C ^9/8f ^3/4c ^3/4g 
Q: 1/4=156
%%MIDI tuningsystem comma53
e12  | d2c2 B4 d4  | c8 B4  | A12  | e8 c4  | \
w:  ARANAĞME  |   |   |   |   | 
d2c2 d2e2 f2e2  | e12  | e8 z4  | d2e2 f2e2 d4  | 
w:   |   |   |   | 
c2d2 e2d2 c4  | B4 A4 c4  | B12  | E2F2 G2A2 B2c2  | \
w:   |   |   |   | 
d2c2 B2A2 G2B2  | 
w:   | 
A12  | A8 z4  | e12  | d2c2 B4 d4  | c8 B4  | A12  | \
w:   |   |  ARANAĞME  |   |   |   | 
e8 c4  | d2c2 d2e2 f2e2  | e12  | e8 z4  | 
w:   |   |   |   | 
d2e2 f2e2 d4  | c2d2 e2d2 c4  | B4 A4 c4  | B12  | \
w:   |   |   |   | 
E2F2 G2A2 B2c2  | d2c2 B2A2 G2B2  | 
w:   |   | 
A12  | A8 z4  | E4 A8  | G4 A4 B4  | c8 B2A2  | A12  | \
w:   |   |  Aş kı   |  fı sıl  |  dar  se  |  sin    | 
c8 e4  | d2c2 B4 d4  | c6B2 A4  | 
w:  Bül bül   |  mü *  *  sün   |  ah  *  ne  | 
B8 A4  | e8 e4  | e12  | f4 =g4 f4  | e4 d4 c4  | \
w:  sin   Be  |  ni  ü  |  ze  |  rek  *  ne  |  den   | 
e4 d4 c4  | d4 e4 f2e2  | e12  | d2c2 B2A2 G2F2  | 
w:  ha râb_  |  e der  |  sin    |  SAZ  | 
E4 A8  | G4 A4 B4  | c8 B2A2  | A12  | c8 e4  | \
w:  Aş kı   |  fı sıl  |  dar  se  |  sin    |  Bül bül   | 
d2c2 B4 d4  | c6B2 A4  | B8 A4  | e8 e4  | 
w:  mü *  *  sün   |  ah  *  ne  |  sin   Be  |  ni  ü  | 
e12  | f4 =g4 f4  | e4 d4 c4  | e4 d4 c4  | \
w:  ze  |  rek  *  ne  |  den   |  ha râb_  | 
d4 e4 f2e2  | e12  | e8 z4  | efe2 d4 B4  | 
w:  e der  |  sin    |   |  SAZ  | 
B4 A4 f2e2  | e12  | e8 z4  | f4 .=g8  | =g4 f4 e4  | \
w:   |   |   |  Bı rak   |  kal bi ne   | 
d3c d4 e4  | f12  | e8 =g4  | f4 e4 d4  | 
w:  gi *  *  re  |  yim    |  Göz yaş  |  la rı mı   | 
^c4 ^B4 d2c2  | ^c12  | A8 c4  | B4 c4 d4  | \
w:  dö *  ke  |  yim    |  İç  bu   |  şa rab_ ol  | 
c4 B4 A4  | e12  | E4 A8  | G4 A4 B4  | c6B2 B2A2  | 
w:  sun  *  sa  |  na    |  Yan sın   |  se nin  de   |  yü *  re  | 
A12  | e8 c4  | d2c2 d2e2 f2e2  | e12  | e8 z4  | \
w:  ğin    |  SAZ  |   |   |   | 
f4 .=g8  | =g4 f4 e4  | d3c d4 e4  | 
w:  Bı rak   |  kal bi ne   |  gi *  *  re  | 
f12  | e8 =g4  | f4 e4 d4  | ^c4 ^B4 d2c2  | ^c12  | \
w:  yim    |  Göz yaş  |  la rı mı   |  dö *  ke  |  yim    | 
A8 c4  | B4 c4 d4  | c4 B4 A4  | e12  | E4 A8  | 
w:  İç  bu   |  şa rab_ ol  |  sun  *  sa  |  na    |  Yan sın   | 
G4 A4 B4  | c6B2 B2A2  | A12  | a12  | e12  | \
w:  se nin  de   |  yü *  re  |  ğin    |  SAZ  |   | 
f2e2 f4 g4  | a12  | a12  | a12  | a2g2 f4 g4  | 
w:   |   |  Sev  |  mek  |  ten  *  *  da  | 
a12  | d'4 c'4 b4  | a8 g4  | f2e2 f4 g4  | a12  | e12  | \
w:  ha   |  se vil  |  mek   |  gü  |  zel    |  Gö  | 
f8 g4  | a4 b4 c'4  | a4 =g4 f4  | =g4 f4 e4  | 
w:  nül  |  de  *  ya  |  şar   |  bu   | 
d4 c4 B4  | A8 f2e2  | e12  | efe2 d4 c4  | \
w:  tat  |  lı  e  |  mel    |  SAZ  | 
B4 A4 f2e2  | e12  | e8 z4  | f4 .=g8  | 
w:   |   |   |  Bı rak   | 
=g4 f4 e4  | d3c d4 e4  | f12  | e8 =g4  | \
w:  kal bi ne   |  gi *  *  re  |  yim    |  Göz yaş  | 
f4 e4 d4  | ^c4 ^B4 d2c2  | ^c12  | A8 c4  | \
w:  la rı mı   |  dö *  ke  |  yim    |  İç  bu   | 
B4 c4 d4  | 
w:  şa rab_ ol  | 
c4 B4 A4  | e12  | E4 A8  | G4 A4 B4  | c6B2 B2A2  | A12  | |


